images/icons/report.svg

<?xml version="1.0" encoding="utf-8"?>
<!-- Generator: Adobe Illustrator 24.3.0, SVG Export Plug-In . SVG Version: 6.00 Build 0)  -->
<svg version="1.1" id="Livello_1" xmlns="http://www.w3.org/2000/svg" xmlns:xlink="http://www.w3.org/1999/xlink" x="0px" y="0px"
	 viewBox="0 0 24 24" style="enable-background:new 0 0 24 24;" xml:space="preserve">
<style type="text/css">
	.st0{fill:#FFFFFF;}
</style>
<path class="st0" d="M3,3v1v10v7h2v-7h7.4l1,2H21V5h-6.4l-1-2H3z"/>
<g>
	<path d="M11.6,9.6L11,6.1C11,6,11,6,11,5.9c0-0.5,0.3-0.8,1-0.8s1,0.2,1,0.7C13,6,13,6,13,6.1l-0.6,3.5H11.6z M12,10.3
		c0.6,0,0.9,0.3,0.9,0.9S12.6,12,12,12s-0.9-0.3-0.9-0.9S11.4,10.3,12,10.3z"/>
</g>
</svg>

<?xml version="1.0" encoding="UTF-8" standalone="no"?>
<!DOCTYPE svg PUBLIC "-//W3C//DTD SVG 1.1//EN" "http://www.w3.org/Graphics/SVG/1.1/DTD/svg11.dtd">
<svg width="100%" height="100%" viewBox="0 0 24 24" version="1.1" xmlns="http://www.w3.org/2000/svg" xmlns:xlink="http://www.w3.org/1999/xlink" xml:space="preserve" xmlns:serif="http://www.serif.com/" style="fill-rule:evenodd;clip-rule:evenodd;stroke-linejoin:round;stroke-miterlimit:2;">
    <g>
        <path d="M3,3L3,21L5,21L5,14L12.4,14L13.4,16L21,16L21,5L14.6,5L13.6,3L3,3ZM12,10.3C12.6,10.3 12.9,10.6 12.9,11.2C12.9,11.8 12.6,12 12,12C11.4,12 11.1,11.7 11.1,11.1C11.1,10.5 11.4,10.3 12,10.3ZM11.6,9.6L11,6.1L11,5.9C11,5.4 11.3,5.1 12,5.1C12.7,5.1 13,5.3 13,5.8L13,6.1L12.4,9.6L11.6,9.6Z" style="fill:white;fill-rule:nonzero;"/>
    </g>
</svg>
